src/app/components/images/Position_marker_5.svg

<svg width="43" height="43" fill="none" xmlns="http://www.w3.org/2000/svg"><mask id="a" style="mask-type:alpha" maskUnits="userSpaceOnUse" x="4" y="4" width="35" height="35"><circle cx="21.5" cy="21.5" r="17.5" fill="#AB4F27"/></mask><g mask="url(#a)"><path fill="#048C11" d="M-17.724-9.276H65.15v63.965h-82.874z"/><path d="M44.62 4C28.188 39.505 16.87 42.223-7.939 9.36l3.514 34.462 52.56-5.36L44.62 4z" fill="#297530"/><path d="m20.656 26.528.312.024c.688 0 1.376-.176 2.064-.528.4-.192.72-.504.96-.936.256-.448.384-.944.384-1.488 0-.56-.12-1.016-.36-1.368a2.54 2.54 0 0 0-.888-.816 4.393 4.393 0 0 0-1.272-.48 11.678 11.678 0 0 0-2.784-.312l-1.848.096-.048-1.008c0-1.728.088-3.224.264-4.488.192-1.28.304-1.936.336-1.968.032-.032.272-.048.72-.048.464 0 1.464-.04 3-.12 1.536-.08 2.704-.12 3.504-.12.816 0 1.264.04 1.344.12.16.224.24.68.24 1.368 0 .688-.04 1.072-.12 1.152a18.37 18.37 0 0 0-1.704-.072c-.608 0-1.24.008-1.896.024-1.424.064-2.184.144-2.28.24-.096.096-.144.488-.144 1.176 0 .672.016 1.016.048 1.032 1.616 0 3.112.368 4.488 1.104.528.272.984.592 1.368.96.4.368.728.848.984 1.44s.384 1.256.384 1.992c0 1.824-.792 3.248-2.376 4.272-1.584 1.024-3.68 1.536-6.288 1.536-1.088 0-1.728-.064-1.92-.192-.112-.112-.168-.928-.168-2.448s.048-2.328.144-2.424c.112-.112.456-.256 1.032-.432.592-.176 1.056-.264 1.392-.264 0 1.728.376 2.72 1.128 2.976z" fill="#fff"/></g><g filter="url(#b)"><circle cx="21.5" cy="21.5" r="16.5" stroke="#3B533E" stroke-width="2"/></g><defs><filter id="b" x="0" y="0" width="43" height="43" filterUnits="userSpaceOnUse" color-interpolation-filters="sRGB"><feFlood flood-opacity="0" result="BackgroundImageFix"/><feBlend in="SourceGraphic" in2="BackgroundImageFix" result="shape"/><feGaussianBlur stdDeviation="2" result="effect1_foregroundBlur_44_488"/></filter></defs></svg>

<svg width="43" height="43" viewBox="0 0 43 43" fill="none" xmlns="http://www.w3.org/2000/svg">
<mask id="mask0_44_488" style="mask-type:alpha" maskUnits="userSpaceOnUse" x="4" y="4" width="35" height="35">
<circle cx="21.5" cy="21.5" r="17.5" fill="#AB4F27"/>
</mask>
<g mask="url(#mask0_44_488)">
<rect x="-17.7241" y="-9.27586" width="82.8736" height="63.9655" fill="#048C11"/>
<path d="M44.6204 3.99999C28.1879 39.5046 16.8689 42.2229 -7.93866 9.3595L-4.42453 43.8216L48.1346 38.4621L44.6204 3.99999Z" fill="#297530"/>
<path d="M20.656 26.528L20.968 26.552C21.656 26.552 22.344 26.376 23.032 26.024C23.432 25.832 23.752 25.52 23.992 25.088C24.248 24.64 24.376 24.144 24.376 23.6C24.376 23.04 24.256 22.584 24.016 22.232C23.776 21.88 23.48 21.608 23.128 21.416C22.776 21.208 22.352 21.048 21.856 20.936C21.008 20.728 20.08 20.624 19.072 20.624L17.224 20.72L17.176 19.712C17.176 17.984 17.264 16.488 17.44 15.224C17.632 13.944 17.744 13.288 17.776 13.256C17.808 13.224 18.048 13.208 18.496 13.208C18.96 13.208 19.96 13.168 21.496 13.088C23.032 13.008 24.2 12.968 25 12.968C25.816 12.968 26.264 13.008 26.344 13.088C26.504 13.312 26.584 13.768 26.584 14.456C26.584 15.144 26.544 15.528 26.464 15.608C25.952 15.56 25.384 15.536 24.76 15.536C24.152 15.536 23.52 15.544 22.864 15.56C21.44 15.624 20.68 15.704 20.584 15.8C20.488 15.896 20.44 16.288 20.44 16.976C20.44 17.648 20.456 17.992 20.488 18.008C22.104 18.008 23.6 18.376 24.976 19.112C25.504 19.384 25.96 19.704 26.344 20.072C26.744 20.44 27.072 20.92 27.328 21.512C27.584 22.104 27.712 22.768 27.712 23.504C27.712 25.328 26.92 26.752 25.336 27.776C23.752 28.8 21.656 29.312 19.048 29.312C17.96 29.312 17.32 29.248 17.128 29.12C17.016 29.008 16.96 28.192 16.96 26.672C16.96 25.152 17.008 24.344 17.104 24.248C17.216 24.136 17.56 23.992 18.136 23.816C18.728 23.64 19.192 23.552 19.528 23.552C19.528 25.28 19.904 26.272 20.656 26.528Z" fill="white"/>
</g>
<g filter="url(#filter0_f_44_488)">
<circle cx="21.5" cy="21.5" r="16.5" stroke="#3B533E" stroke-width="2"/>
</g>
<defs>
<filter id="filter0_f_44_488" x="0" y="0" width="43" height="43" filterUnits="userSpaceOnUse" color-interpolation-filters="sRGB">
<feFlood flood-opacity="0" result="BackgroundImageFix"/>
<feBlend mode="normal" in="SourceGraphic" in2="BackgroundImageFix" result="shape"/>
<feGaussianBlur stdDeviation="2" result="effect1_foregroundBlur_44_488"/>
</filter>
</defs>
</svg>
